X:770
T:the Breakdown
A:North-West
M:C|
O:England
R:Reel
Z:Richard Robinson 
%%TUNEURL: http://www.leeds.ac.uk/music/Info/RRTuneBk/gettune/0000051a.html
%%ID:0000051a
K:A
eg|\
a2A2 AcBA| E2A2 AcBA| \
F2B2 BcBA| GABc defg| \
a2A2 AcBA| E2A2 AcBA|
GABc defg| aece a2 ::\
z2|\
A2{g}a2 A2{g}a2| A2AB cBAF|
E2e2 E2e2| E2Bc edcB| \
A2{g}a2 A2{g}a2| A2AB cBAF| \
E2Bc edcB| A2c2 A2:|
